public/themes/EC/images/ico-mic-w.svg

<?xml version="1.0" encoding="UTF-8"?>
<svg width="22px" height="32px" viewBox="0 0 22 32" version="1.1" xmlns="http://www.w3.org/2000/svg" xmlns:xlink="http://www.w3.org/1999/xlink">
    <!-- Generator: Sketch 61 (89581) - https://sketch.com -->
    <title>Voice-Invert</title>
    <desc>Created with Sketch.</desc>
    <g id="Page-1" stroke="none" stroke-width="1" fill="none" fill-rule="evenodd">
        <g id="Landing" transform="translate(-80.000000, -29.000000)">
            <g id="10E" transform="translate(80.000000, 29.000000)">
                <path d="M21.3612903,16.1706667 C21.3612903,15.6117333 20.9141935,15.1580444 20.3535484,15.1580444 C19.7929032,15.1580444 19.3458065,15.6117333 19.3458065,16.1706667 C19.3458065,20.9159111 15.4922581,24.7765333 10.7516129,24.7765333 C6.01806452,24.7765333 2.16451613,20.9159111 2.16451613,16.1706667 C2.16451613,15.6117333 1.71741935,15.1580444 1.15677419,15.1580444 C0.596129032,15.1580444 0.149032258,15.6117333 0.149032258,16.1706667 C0.149032258,21.6910222 4.36451613,26.2378667 9.74387097,26.7505778 L9.74387097,29.6192 L4.97483871,29.6192 C4.41419355,29.6192 3.96,30.0728889 3.96,30.6318222 C3.96,31.1907556 4.41419355,31.6444444 4.97483871,31.6444444 L16.5354839,31.6444444 C17.096129,31.6444444 17.5503226,31.1907556 17.5503226,30.6318222 C17.5503226,30.0728889 17.096129,29.6192 16.5354839,29.6192 L11.7664516,29.6192 L11.7664516,26.7505778 C17.1458065,26.2378667 21.3612903,21.6910222 21.3612903,16.1706667 M8.11870968,4.93795556 C8.11870968,3.57262222 9.22580645,2.46328889 10.5883871,2.46328889 L10.9219355,2.46328889 C12.2845161,2.46328889 13.3916129,3.57262222 13.3916129,4.93795556 L13.3916129,16.8170667 C13.3916129,18.1816889 12.2845161,19.2917333 10.9219355,19.2917333 L10.5883871,19.2917333 C9.22580645,19.2917333 8.11870968,18.1816889 8.11870968,16.8170667 L8.11870968,4.93795556 Z M10.5883871,21.3169778 L10.9219355,21.3169778 C13.3987097,21.3169778 15.4070968,19.2988444 15.4070968,16.8170667 L15.4070968,4.93795556 C15.4070968,2.45688889 13.3987097,0.438044444 10.9219355,0.438044444 L10.5883871,0.438044444 C8.1116129,0.438044444 6.09612903,2.45688889 6.09612903,4.93795556 L6.09612903,16.8170667 C6.09612903,19.2988444 8.1116129,21.3169778 10.5883871,21.3169778 L10.5883871,21.3169778 Z" fill="#9A9A9F"></path>
                <path d="M21.3612903,16.1706667 C21.3612903,15.6117333 20.9141935,15.1580444 20.3535484,15.1580444 C19.7929032,15.1580444 19.3458065,15.6117333 19.3458065,16.1706667 C19.3458065,20.9159111 15.4922581,24.7765333 10.7516129,24.7765333 C6.01806452,24.7765333 2.16451613,20.9159111 2.16451613,16.1706667 C2.16451613,15.6117333 1.71741935,15.1580444 1.15677419,15.1580444 C0.596129032,15.1580444 0.149032258,15.6117333 0.149032258,16.1706667 C0.149032258,21.6910222 4.36451613,26.2378667 9.74387097,26.7505778 L9.74387097,29.6192 L4.97483871,29.6192 C4.41419355,29.6192 3.96,30.0728889 3.96,30.6318222 C3.96,31.1907556 4.41419355,31.6444444 4.97483871,31.6444444 L16.5354839,31.6444444 C17.096129,31.6444444 17.5503226,31.1907556 17.5503226,30.6318222 C17.5503226,30.0728889 17.096129,29.6192 16.5354839,29.6192 L11.7664516,29.6192 L11.7664516,26.7505778 C17.1458065,26.2378667 21.3612903,21.6910222 21.3612903,16.1706667 M8.11870968,4.93795556 C8.11870968,3.57262222 9.22580645,2.46328889 10.5883871,2.46328889 L10.9219355,2.46328889 C12.2845161,2.46328889 13.3916129,3.57262222 13.3916129,4.93795556 L13.3916129,16.8170667 C13.3916129,18.1816889 12.2845161,19.2917333 10.9219355,19.2917333 L10.5883871,19.2917333 C9.22580645,19.2917333 8.11870968,18.1816889 8.11870968,16.8170667 L8.11870968,4.93795556 Z M10.5883871,21.3169778 L10.9219355,21.3169778 C13.3987097,21.3169778 15.4070968,19.2988444 15.4070968,16.8170667 L15.4070968,4.93795556 C15.4070968,2.45688889 13.3987097,0.438044444 10.9219355,0.438044444 L10.5883871,0.438044444 C8.1116129,0.438044444 6.09612903,2.45688889 6.09612903,4.93795556 L6.09612903,16.8170667 C6.09612903,19.2988444 8.1116129,21.3169778 10.5883871,21.3169778 L10.5883871,21.3169778 Z" id="10E-Invert" fill="#FFFFFF"></path>
            </g>
        </g>
    </g>
</svg>

<svg width="22" height="32" viewBox="0 0 22 32" xmlns="http://www.w3.org/2000/svg"><title>Voice-Invert</title><g fill="none" fill-rule="evenodd"><path d="M21.361 16.17a1.008 1.008 0 1 0-2.015 0c0 4.746-3.854 8.607-8.594 8.607-4.734 0-8.587-3.861-8.587-8.606a1.008 1.008 0 1 0-2.016 0c0 5.52 4.216 10.067 9.595 10.58v2.868h-4.77a1.014 1.014 0 1 0 0 2.025h11.561a1.014 1.014 0 1 0 0-2.025h-4.769v-2.868c5.38-.513 9.595-5.06 9.595-10.58M8.12 4.938a2.474 2.474 0 0 1 2.47-2.475h.333c1.363 0 2.47 1.11 2.47 2.475v11.88a2.474 2.474 0 0 1-2.47 2.474h-.334a2.474 2.474 0 0 1-2.47-2.475V4.938zm2.47 16.379h.333c2.477 0 4.485-2.018 4.485-4.5V4.938c0-2.481-2.008-4.5-4.485-4.5h-.334a4.501 4.501 0 0 0-4.492 4.5v11.88a4.502 4.502 0 0 0 4.492 4.499z" fill="#9A9A9F"/><path d="M21.361 16.17a1.008 1.008 0 1 0-2.015 0c0 4.746-3.854 8.607-8.594 8.607-4.734 0-8.587-3.861-8.587-8.606a1.008 1.008 0 1 0-2.016 0c0 5.52 4.216 10.067 9.595 10.58v2.868h-4.77a1.014 1.014 0 1 0 0 2.025h11.561a1.014 1.014 0 1 0 0-2.025h-4.769v-2.868c5.38-.513 9.595-5.06 9.595-10.58M8.12 4.938a2.474 2.474 0 0 1 2.47-2.475h.333c1.363 0 2.47 1.11 2.47 2.475v11.88a2.474 2.474 0 0 1-2.47 2.474h-.334a2.474 2.474 0 0 1-2.47-2.475V4.938zm2.47 16.379h.333c2.477 0 4.485-2.018 4.485-4.5V4.938c0-2.481-2.008-4.5-4.485-4.5h-.334a4.501 4.501 0 0 0-4.492 4.5v11.88a4.502 4.502 0 0 0 4.492 4.499z" fill="#FFF"/></g></svg>
